icon/pk/archers-bow.svg

<svg viewBox="0 0 48 48" fill="none" xmlns="http://www.w3.org/2000/svg" height="1em" width="1em">
  <g clip-path="url(#clip0_12383_14141)">
    <path d="M40.8505 43.9205L39.2762 43.6056C36.9266 43.1357 35.856 39.9987 36.6027 37.7219C38.5571 31.7629 37.1246 24.1116 36.3326 20.8093C36.0869 19.7845 35.2752 19.0154 34.2529 18.7598L31.9902 18.1941C30.9153 17.9254 30.0761 17.0862 29.8074 16.0113L29.2417 13.7486C28.9861 12.7262 28.217 11.9146 27.1922 11.6688C23.8899 10.8769 16.2385 9.4444 10.2795 11.3988C8.00278 12.1455 4.86576 11.0749 4.39585 8.72533L4.08097 7.15096" stroke="black" stroke-width="4" stroke-linecap="round" stroke-linejoin="round"/>
    <path d="M6 11L38 43" stroke="black" stroke-width="4" stroke-linecap="round" stroke-linejoin="round"/>
    <path d="M12 36L43 5" stroke="black" stroke-width="4" stroke-linecap="round" stroke-linejoin="round"/>
  </g>
  <defs>
    <clipPath id="clip0_12383_14141">
      <rect width="48" height="48" fill="white"/>
    </clipPath>
  </defs>
</svg>

<svg width="48" height="48" fill="none" xmlns="http://www.w3.org/2000/svg"><g clip-path="url(#a)" stroke="#000" stroke-width="4" stroke-linecap="round" stroke-linejoin="round"><path d="m40.85 43.92-1.574-.314c-2.35-.47-3.42-3.607-2.673-5.884 1.954-5.96.522-13.61-.27-16.913-.246-1.024-1.058-1.794-2.08-2.05l-2.263-.565a3 3 0 0 1-2.183-2.183l-.565-2.262c-.256-1.023-1.025-1.834-2.05-2.08-3.302-.792-10.954-2.225-16.913-.27-2.276.747-5.413-.324-5.883-2.674L4.08 7.151M6 11l32 32M12 36 43 5"/></g><defs><clipPath id="a"><path fill="#fff" d="M0 0h48v48H0z"/></clipPath></defs></svg>
